**kern	**kern	**dynam
*part1	*part1	*part1
*staff2	*staff1	*
*I"Piano	*	*
*clefF4	*clefG2	*
*k[]	*k[]	*
=1	=1	=1
*	*^	*
4CC 4C	(4c' 4e	4E< 4G<	pp <
4BBBn 4BBn	4c' 4e	4E< 4G<	.
4BBB-X 4BB-X	4c' 4e	4E< 4G<	.
=	=	=	=
4AAA 4AA	4c' 4e	4E< 4G<	.
4AAA-X 4AA-X	4c' 4e	4E< 4G<	.
4GGG 4GG	4c') 4e	4E< 4G<	.
=	=	=	=
4FFF#X 4FF#X	2a	4c 4e-X	[ mf >
4F#X 4A	.	4c 4e-	.
4F# 4A	4a	4c 4e-	.
=	=	=	=
4F#X 4A	2.a 2.cc	4c 4d	] fz
4F# 4A	.	4c 4d	.
4F# 4A	.	4c 4d	.
*	*v	*v	*
=	=	=
2GG 2G	4c 4en 4g 4cc	.
!	!LO:TX:b:i:t=dim.	!
.	4c 4f 4a	.
4B	4f 4g 4dd	.
=	=	=
4c	4e 4g	.
4G	4c 4e	.
4F#X	4c 4e-X 4a	.
=	=	=
*	*^	*
2G	2g	4c 4d	.
.	.	4c 4d	.
*^	*	*	*
4F	4GG	4g	4B 4d	.
*v	*v	*	*	*
=	=	=	=
2.CC;: 2.GG: 2.C:	2.e; 2.g	2.E< 2.G<	.
*	*v	*v	*
==	==	==
*-	*-	*-
!!!system-decoration: {(s1,s2)}
!!!RDF**kern: < = below
